X:1
T:Title
%%score { 1 | ( 2 3 ) }
L:1/8
M:4/4
K:Bb
V:1 treble nm="Grand Piano"
V:2 bass 
V:3 bass 
V:1
 z4 z2[Q:1/4=100] [B,D]>[CE] | [DF]2 [Fd]2 [Fd]2 [DB]>[Dc] | [EB]2 [EA]2 [EA]2 C>D | %3
 E2 [Ec]2 [Ec]2 [EG]>[EA] | [DG]2 [DF]2 [B,D]2 [B,D]>[CE] | [DF]2 [Fd]2 [Fd]2 [=E_d]>[F=d] | %6
[M:9/8] [Ge]2 [Ge]- [Ge] G2- GA>B |[M:4/4] F2 BB B2 AB |[M:7/8] d2 c2 [DB]3 |[M:1/4] [B,D]>[CE] | %10
[M:4/4] [DF]2 [Fd]4 [DB]>[Dc] | [EB]2 [EA]4 C>D | E2 F2 G2 A2 |[M:3/4] [DG]2 [DF]2 [B,D]2 | %14
[M:1/4] [B,D]>[CE] |[M:4/4] [DF]2 [Fd]4 [_Af]>[Af] | [Gf]2 [Ge]4 d>_d | d2 F4 c2 |[M:3/4] [DB]6 |] %19
V:2
 z4 z2 [B,,F,]>[B,,F,] | [B,,B,]2 [B,,B,]2 [B,,B,]2 [B,,F,]>[B,,F,] | %2
 [C,F,]2 [C,F,]2 [C,F,]2 [E,F,]>[D,F,B,] | [C,F,C]2 [A,,F,]2 [F,,F,]2 [F,A,]>[=E,C] | %4
 [B,,B,]2 [B,,B,]2 [B,,F,]2 [B,,F,]>[B,,F,] | [B,,B,]2 [B,,B,]2 [B,,B,]2 [B,,B,]>[B,,B,] | %6
[M:9/8] [E,B,]2 [E,B,]- [E,B,] [E,B,E]2- [E,B,E][=E,B,_D]>[E,G,D] | %7
[M:4/4] [F,B,D]2 D[K:treble]D [F,DF]2 CD |[M:7/8] [F,B,F]2[K:bass] [F,A,E]2 [B,,B,]3 | %9
[M:1/4] [B,,F,]>[B,,F,] |[M:4/4] [B,,B,]2 [B,,B,]4 [B,,F,]>[B,,F,] | %11
 [C,F,]2 [C,F,]4 [F,A,]>[F,B,] | [F,A,C]2 [F,B,D]2 [F,A,E]2 [F,CE]2 | %13
[M:3/4] [B,,B,]2 [B,,B,]2 [B,,F,]2 |[M:1/4] [B,,F,]>[B,,F,] | %15
[M:4/4] [B,,B,]2 [B,,B,]4 [B,,B,]>[B,,B,] | [E,B,]2 [E,B,]4 [F,B,F]>[^F,B,=E] | %17
 [F,B,F]2 [F,B,D]4 [F,A,E]2 |[M:3/4] [B,,B,]6 |] %19
V:3
 x8 | x8 | x8 | x8 | x8 | x8 |[M:9/8] x9 |[M:4/4] z2 [F,B,]2[K:treble] z2 [F,F]2 | %8
[M:7/8] x2[K:bass] x5 |[M:1/4] x2 |[M:4/4] x8 | x8 | x8 |[M:3/4] x6 |[M:1/4] x2 |[M:4/4] x8 | x8 | %17
 x8 |[M:3/4] x6 |] %19

